!!!!SEGMENT: pl-cz--i-37--007_jarecki-jozef--requiem-lux-aeterna.krn
!!!cenid: 18xx:852
!!!COM: Jarecki, Józef
!!!COM-rismID:
!!!CDT: 1818/08/02-1871/12/23
!!!CNT: Polish
!!!OPR: Requiem
!!!OTL: Lux aeterna
!!!OMV: 007
!!!PDT:
!!!AGN: Sacred; Requiem
!!!SMS-siglum: PL-CZ
!!!SMS-shelfmark: I-37
!!!SMS-shelfwork: 001-007 M
!!!SMS-variant:
!!!SMS-altvar:
!!!NIFC-rismSourceID: 300000525
!!!NIFC-islandoraID: pl-cz:31603
!!!URL-pdf-islandora: https://repozytorium.nifc.pl/islandora/object/pl-cz%3A31603/datastream/PDF/view
!!!URL-scan:
!!!ONB-nifc: UWAGA: części Requiem: Requiem, Dies irae, Domine Jesu Christe, Sanctus, Benedictus, Agnus, Lux aeterna
!!!AIN: 1 bass 2 organ 2 tenor
!!!key:
**kern	**kern	**kern	**kern	**kern	**text
*part5	*part4	*part3	*part2	*part1	*part1
*staff5	*staff4	*staff3	*staff2	*staff1	*staff1
*Iorgan	*Iorgan	*Ibass	*Itenor	*Itenor	*
*I"Organo	*I"Organo	*I"Basso	*I"Tenore II	*I"Tenore I	*
*	*	*I'B	*I'T II	*I'T I	*
*clefF4	*clefG2	*clefF4	*clefG2	*clefG2	*
*k[b-]	*k[b-]	*k[b-]	*k[b-]	*k[b-]	*
*C:	*C:	*C:	*C:	*C:	*
*M4/4	*M4/4	*M4/4	*M4/4	*M4/4	*
*met(c)	*met(c)	*met(c)	*met(c)	*met(c)	*
=1	=1	=1	=1	=1	=1
!	!	!	!LO:N:vis=2	!	!
8BBn\ 8Bn\	8d/ 8f/ 8g/	4r	2.d/ 2.f/	4r	.
8r	8r	.	.	.	.
!LO:N:vis=2	!	!	!	!	!
2.BB\ 2.B\	2.d/ 2.f/ 2.g/	2BBn\ 2Bn\	.	2g/	Lux
.	.	4BB\ 4B\	4d/ 4f/	4g/	ae-
=2	=2	=2	=2	=2	=2
4Bn\	2d/ 2f/ 2g/	4Bn\	4d/ 4f/	4g/	-ter-
2BBn/	.	4BBn/	4d/ 4f/	4g/	-na
.	2r	2r	2r	2r	.
4BB/	.	.	.	.	.
=3	=3	=3	=3	=3	=3
*	*	*	*^	*	*
4BBn/	4r	2BBn/	4ryy	4r	4r	.
2.Bn\	2.d/ 2.f/ 2.g/	.	4d\	4f/	4g/	lu-
.	.	4Bn\	4d\	4f/	4g/	-ce-
.	.	4B\	4d\	4f/	4g/	-at
*	*	*	*v	*v	*	*
=4	=4	=4	=4	=4	=4
4Bn\	2d/ 2f/ 2g/	4Bn\	4d\ 4f\	4g/	e-
4BBn/	.	4BBn/	4d\ 4f\	4g/	-is
4BB/	2r	2r	2r	2r	.
4BB/	.	.	.	.	.
=5	=5	=5	=5	=5	=5
*	*^	*	*	*	*
2C/	2f/ 2a/	1c\	2C/	2f/	2a/	Do-
2C/	2e/ 2g/	.	2C/	2e/	2g/	-mi-
*	*v	*v	*	*	*	*
=6	=6	=6	=6	=6	=6
4F\	4A/ 4f/	4F\	4f/	4f/	-ne
4A\	4a/	4A\	4a/	4a/	eum
4A\	4a/	4A\	4a/	4a/	sanc-
4A\	4a/	4A\	4a/	4a/	-tis
=7	=7	=7	=7	=7	=7
*	*	*^	*	*	*
4D\ 4d\	4f/ 4a/ 4dd/	4d/	4D\	4dd\	4dd\	Tu-
4r	4r	4d/	4D\	4dd\	4dd\	-is
4AA/ 4A/	4a\ 4cc#X\ 4ee\	4A/	4AA\	4cc#X\	4ee\	in
4r	4r	4A/	4AA\	4cc#\	4ee\	ae-
=8	=8	=8	=8	=8	=8	=8
*	*	*	*	*^	*	*
4D\ 4d\	4a\ 4dd\ 4ff\	4d/	4D\	4a/	4rgyy	4ff\	-ter-
!LO:SIC:s:o=:v:brak pauz w t. 8	!	!LO:SIC:s:o=:v:krótka cauda niższego głosu [przyjęto warstwę 2]	!	!	!	!	!
4ryy	4f/ 4a/ 4dd/	4D/	4DD/	4a/	4f\	4dd\	-num
2ryy	2r	2r	2ryy	2r	2ryy	2r	.
*	*	*v	*v	*	*	*	*
*	*	*	*v	*v	*	*
!!LO:PB:g=original
=9	=9	=9	=9	=9	=9
*	*	*	*	*^	*
!	!	!	!	!LO:TX:b:t=g	!	!
2G\	2B-/ 2e/ 2g/	4G\	4b-\	4b-\	4g/	qu-
.	.	4G\	4b-\	4g/	4reyy	-ia
4A\	4A/ 4d/ 4f/	4A\	4a\	4f/	2reyy	pi-
4AA/	4A/ 4c#X/ 4e/	4AA/	4g/	4e/	.	-us
*	*	*	*	*v	*v	*
=10	=10	=10	=10	=10	=10
!	!	!	!	!LO:TX:a:t=d	!
4D\	4d/	4D\	4f/	4d/ 4f/	es
4r	4f/	4r	4r	4r	.
4r	4f/	2r	2r	2r	.
4D\	4d/ 4f/ 4a/	.	.	.	.
=11	=11	=11	=11	=11	=11
*	*^	*	*	*	*
!	!	!	!	!	!LO:TX:b:t=Requiem	!
4BB-/	2f/ 2g/	2reyy	1r	1r	1r	.
4GG/	.	.	.	.	.	.
4C/	8g/L	4e\	.	.	.	.
.	8dd/	.	.	.	.	.
4C/	8cc/	4e\	.	.	.	.
.	8b-/J	.	.	.	.	.
*	*v	*v	*	*	*	*
=12	=12	=12	=12	=12	=12
2F\	2c/ 2f/ 2a/	4.F\	4.f/	4.a/	Re-
.	.	8F\	8f/	8a/	-qui-
2D\	2d/ 2f/ 2a/	4D\	4f/	4a/	-em
.	.	4D\	4f/	4a/	ae-
=13	=13	=13	=13	=13	=13
2AA/	2c#X/ 2e/ 2a/	4AA/	4e/	4a/	-ter-
.	.	4AA/	4e/	4a/	-nam
2D\	2d/ 2f/ 2a/	4D\	4f/	4a/	do-
.	.	4D\	4f/	4a/	-na
=14	=14	=14	=14	=14	=14
*	*^	*^	*	*	*
!	!	!	!LO:SIC:s:o=:v:krótkie caudy niższego głosu [przyjęto warstwę 2] w tt. 14-16	!	!	!	!
2GG/ 2G/	2d/ 2g/ 2b-/	2reyy	4.G/	4.GG/	4.g/	4.b-/	e-
.	.	.	8G/	8GG/	8g/	8b-/	-is
!	!	!	!	!	!LO:SIC:s:o=:v:brak nuty na 3 miarę	!	!
4AA\ 4A\	4d/ 4f/ 4a/	4rcyy	4A/	4AA/	4ryy	4a/	Do-
4BB-\ 4B-\	4g#X/	8e\L	4B-/	4BB-/	4g#X/	4g#X/	-mi-
.	.	8d\J	.	.	.	.	.
*	*v	*v	*	*	*	*	*
=15	=15	=15	=15	=15	=15	=15
*	*tremolo	*	*	*	*	*
!	!LO:SIC:o:s=:v:czy na pewno tremolo?	!	!	!	!	!
4AA\ 4A\	8c#X/ 8e/ 8a/L	4A/	4AA/	4a/	4a/	-ne
.	8c#X/ 8e/ 8a/	.	.	.	.	.
8A\L	8c#X/ 8e/ 8a/	4r	4ryy	4r	4r	.
16E\L	8c#X/ 8e/ 8a/	.	.	.	.	.
16C#X\JJ	.	.	.	.	.	.
4AA/	8c#X/ 8e/ 8a/	4r	4ryy	4r	4r	.
.	8c#X/ 8e/ 8a/	.	.	.	.	.
4AA/ 4A/	8c#X/ 8e/ 8a/	4A/	4AA/	4a/	4a/	et
.	8c#X/ 8e/ 8a/J	.	.	.	.	.
=16	=16	=16	=16	=16	=16	=16
2GG/ 2G/	2d/ 2g/ 2b-/	4G/	4GG/	4g/	4b-/	lux
.	.	4G/	4GG/	4g/	4b-/	per-
4Cn/	4cn/ 4e/ 4g/	4Cn/	2rGGyy	4e/	4g/	-pe-
8C/L	4c/ 4e/ 4g/	8C/	.	8e/	8g/	-tu-
8BB-/J	.	8BB-/	.	8e/	8g/	-a
*	*	*v	*v	*	*	*
!!LO:LB:g=original
=17	=17	=17	=17	=17	=17
2AA/	2c/ 2f/ 2cc/	2AA/	2f/	2cc\	lu-
4BB-/	4e/ 4g/ 4b-/	4BB-/	4g/	4b-\	-ce-
4BB-/	4e/ 4g/ 4b-/	4BB-/	4g/	4b-\	-at
=18	=18	=18	=18	=18	=18
1C/	8f/ 8a/L	2C/	(2f/	(>2a/	e-
.	8c/	.	.	.	.
.	8f/ 8a/	.	.	.	.
.	8c/J	.	.	.	.
.	8e/ 8g/L	2C/	2e/)	2g/)	.
.	8c/	.	.	.	.
.	8e/ 8g/	.	.	.	.
.	8c/J	.	.	.	.
*	*Xtremolo	*	*	*	*
=19	=19	=19	=19	=19	=19
4FF/ 4F/	4A/ 4c/	4F\	4f/	4f/	-is
4r	4r	4C/	4cc\	4cc\	cum
2r	2r	4C/	4cc\	4cc\	Sanc-
.	.	4C/	4cc\	4cc\	-tis
=20	=20	=20	=20	=20	=20
1r	1r	4C/	4cc\	4cc\	Tu-
.	.	4C/	4cc\	4cc\	-is
.	.	4C/	4cc\	4cc\	in
.	.	4C/	4cc\	4cc\	ae-
=21	=21	=21	=21	=21	=21
4C\ 4c\	4g/ 4b-/ 4cc/ 4ee/	1C/	1g/	1g\ 1b-\ 1ee\	-ter-
4r	4r	.	.	.	.
2r	2r	.	.	.	.
=22	=22	=22	=22	=22	=22
2FF/ 2F/	2a\ 2cc\ 2ff\	2F\	2a\ 2cc\	2ff\	-num
2r	2r	2r	2r	2r	.
=23	=23	=23	=23	=23	=23
1C/	2B-/ 2c/ 2e/ 2g/	4C/	4e/	4g/	qu-
.	.	4C/	4e/	4g/	-ia
.	2B-/ 2c/ 2e/ 2g/	4C/	4e/	4g/	pi-
.	.	4C/	4e/	4g/	-us
=24	=24	=24	=24	=24	=24
2F\	2A/ 2c/ 2f/	2F\	2f/	2f/	es
2FF\ 2F\	2c/ 2f/ 2a/	2r	2r	2r	.
=25	=25	=25	=25	=25	=25
2FF\ 2F\	2A/ 2c/ 2f/	1r	1r	1r	.
2r	2r	.	.	.	.
==	==	==	==	==	==
*-	*-	*-	*-	*-	*-
!!!system-decoration: s1,s2,s3[(s4,s5)]
!!!ENC: Andrzej Kubiczek
!!!END: 2020-07-22
!!!EED: Leszek Kubiak
!!!EEV: 2020-09-24
